X: 32540
T: Planxty Drew
R: jig
M: 6/8
K: Gdorian
|:A|BAG Bcd|cdB AGF|GDG G2A|BGG G2A|
BAG Bcd|cdB AGF|Ggg afd|cAF G2:|
|:A|GDG Bcd|Ggg gaf|gfd cAF|Ggg g2g|
afa geg|fed cAF|Ggg afd|cAF G2:|

